src/assets/DownDirection.svg

<svg width="24" height="24" viewBox="0 0 24 24" fill="none" xmlns="http://www.w3.org/2000/svg">
    <path d="M1.5 3.1579H12.64" stroke="currentColor" stroke-width="3" stroke-linecap="round" />
    <path d="M1.5 12H9.15961" stroke="currentColor" stroke-width="3" stroke-linecap="round" />
    <path d="M1.5 20.8421H22.5" stroke="currentColor" stroke-width="3" stroke-linecap="round" />
    <path fill-rule="evenodd" clip-rule="evenodd"
        d="M23.4444 10.3599C23.9538 10.8692 23.956 11.6929 23.4494 12.1995L19.193 16.4559C18.6863 16.9625 17.8627 16.9603 17.3533 16.4509L13.2214 12.319C12.712 11.8096 12.7098 10.9859 13.2164 10.4793C13.723 9.97269 14.5466 9.97492 15.056 10.4843L16.9613 12.3896L16.9613 1.83611C16.9594 1.11769 17.5402 0.536869 18.2586 0.538816C18.977 0.540763 19.561 1.12474 19.563 1.84316L19.563 12.3967L21.6047 10.3549C22.1114 9.84825 22.935 9.85048 23.4444 10.3599Z"
        fill="currentColor" />
</svg>

<svg xmlns="http://www.w3.org/2000/svg" width="24" height="24" fill="none"><path stroke="currentColor" stroke-linecap="round" stroke-width="3" d="M1.5 3.158h11.14M1.5 12h7.66M1.5 20.842h21"/><path fill="currentColor" fill-rule="evenodd" d="M23.444 10.36a1.3 1.3 0 0 1 .005 1.84l-4.256 4.256a1.3 1.3 0 0 1-1.84-.005l-4.132-4.132a1.3 1.3 0 0 1-.005-1.84 1.3 1.3 0 0 1 1.84.005l1.905 1.906V1.836A1.292 1.292 0 0 1 18.26.54a1.31 1.31 0 0 1 1.304 1.304v10.554l2.042-2.042a1.3 1.3 0 0 1 1.84.005" clip-rule="evenodd"/></svg>
